X:130
T: Siebenbuergen, Land des Segens
N: D0197
O: Europa, Suedosteuropa, Rumaenien, Siebenbuergen
R: Heimat - Lied
M: 3/4
L: 1/16
K: G
B2G2 | d4d4A2B2 | G4D4
G2A2 | B6cBA2G2 | A8
D2D2 | G6B2d2e2 | d2c2B4
d2e2 | c6A2d2c2 | B2c2d4
G2A2 | B4B4B2B2 | B8
GABc | d4d4A2B2 | G8

